X:1
T:Lead Me
T:Lead Me
T:Ira Allan Sankey
T:Louise F. Emanuel, 1907
T:Public Domain Courtesy of the Cyber Hymnal™
T:Public Domain Courtesy of the Cyber Hymnal™
C:Ira Allan Sankey
Z:Public Domain
Z:Courtesy of the Cyber Hymnal™
%%score ( 1 2 ) ( 3 4 )
L:1/8
Q:1/4=105
M:4/4
K:G
V:1 treble 
V:2 treble 
V:3 bass 
V:4 bass 
V:1
 DD | [DG]2 [DG]2 [GB]2 [GB]2 | [GB][FA][EG][FA] [GB]2 [GB][Fc] | [Gd]2 [Dd]2 [Fc]2 [GB]2 | %4
w: 1.~Guide my|foot- steps, Fa- ther,|Lead me lest I stray; Let Thy|hand un- err- ing|
w: 2.~As I|jour- ney on- ward|To the home a- bove; All my|path- way shel- ter|
w: 3.~Guide my|foot- steps, Fa- ther,|Night draws on a- pace; Work- ing|hours of bright- ness|
 [GB][FA][FA][EG] [FA]2 [Fd]>[Ac] | [GB]2 [GB]2 [GA]2 G2 | [EG][EG][DF][CE] [B,D]2 [B,D][B,D] | %7
w: Point out all my way. When the|road is drear- y,|And my soul is sad, When my|
w: With Thy wings of love. ’Neath them|my pa- vil- ion,|Naught can me a- larm. Shin- ing|
w: To the dark give place. Guide my|foot- steps, Fa- ther,|What have I to fear? Thou my|
 [CE]2 [DF]2 [DG][DB][=Fd][Ec] | [DB]2 [FA]2 !fermata!G2 ||"^Refrain" [DB][Dc] | d6 [Ge]2 | %11
w: heart is wear- y, Do Thou|make me glad.|||
w: sun, or sha- dow, Nei- ther|work- eth harm.|Be my|rock and|
w: joy- ful por- tion, Thou my|guide sin- cere!|||
 [Gd]2 [GB]4 G[GA] | B6 [Gc]2 | [GB]6 DD | [DG]2 [DG]2 [DA]2 [FA]2 | [GB]2 [Gd]4 [DG][EA] | %16
w: |||||
w: fort- ress, Be my|strength and|stay; Like a|ten- der shep- herd|lead me, Lead me|
w: |||||
 [DB]2 [Ec]2 [CA]3 [B,G] | [B,G]6 |] %18
w: ||
w: safe- ly all the|way.|
w: ||
V:2
 DD | x8 | x8 | x8 | x8 | x6 (D^D) | x8 | x8 | x4 G2 || x2 | (G2 G2 G2) x2 | x6 G x | %12
 (G2 G2 G2) x2 | x6 DD | x8 | x8 | x8 | x6 |] %18
V:3
 [G,B,][G,B,] | [G,B,]2 [G,B,]2 [G,D]2 [G,D]2 | [D,D][D,D][D,D][D,D] [G,D]2 [G,D][A,D] | %3
w: ~ ~|~ ~ ~ ~|~ ~ ~ ~ ~ ~ ~|
 [B,D]2 [B,D]2 [A,D]2 [G,D]2 | [D,D][D,D][D,D][D,D] [D,D]2 [D,D]>[F,D] | %5
w: ~ ~ ~ ~|~ ~ ~ ~ ~ ~ ~|
 [G,D]2 [G,D]2 [G,C]2 [G,B,]2 | [C,C][C,G,][C,G,][E,G,] G,2 G,G, | %7
w: ~ ~ ~ ~|~ ~ ~ ~ ~ ~ ~|
 [C,G,]2 [A,,C]2 [G,,B,][G,,G,][B,,G,][C,G,] | [D,G,]2 [D,C]2 !fermata![G,,B,]2 || G,[G,A,] | %10
w: ~ ~ ~ ~ ~ ~|~ ~ ~|Be my|
 [G,B,]2 [G,B,]2 [G,B,]2 [G,C]2 | [G,B,]2 [G,D]4 [G,B,][G,C] | [G,D]2 [G,D]2 [G,D]2 [G,E]2 | %13
w: rock, my rock and|fort- ress, Be my|strength, my strength and|
 [G,D]6 [G,,B,][G,,B,] | [G,,B,]2 [B,,G,]2 [D,F,]2 [D,D]2 | [G,D]2 [G,B,]4 [B,,G,][C,G,] | %16
w: stay; * *|||
 [D,G,]2 [D,G,]2 [D,F,]3 [G,,G,] | [G,,G,]6 |] %18
w: ||
V:4
 x2 | x8 | x8 | x8 | x8 | x8 | x4 G,2 G,G, | x8 | x6 || G, x | x8 | x8 | x8 | x8 | x8 | x8 | x8 | %17
 x6 |] %18

